static/images/049-settings.svg

<svg width="189" height="188" viewBox="0 0 189 188" fill="none" xmlns="http://www.w3.org/2000/svg">
<g clip-path="url(#clip0)">
<path d="M153.159 188H35.6587C16.1891 188 0.408691 172.22 0.408691 152.75V35.25C0.408691 15.7805 16.1891 0 35.6587 0H153.159C172.628 0 188.409 15.7805 188.409 35.25V152.75C188.409 172.22 172.628 188 153.159 188Z" fill="#FFE6E2"/>
<path d="M137.35 104.481C137.344 104.475 137.337 104.469 137.331 104.463L131.31 98.9298C131.515 97.266 131.621 95.6093 131.621 94C131.621 92.3907 131.515 90.734 131.31 89.0702L137.35 83.5194C139.34 81.6447 139.799 78.6599 138.442 76.2574L131.797 64.7598C130.463 62.3803 127.562 61.2701 124.918 62.0934L117.104 64.5605C114.448 62.4922 111.588 60.8355 108.586 59.6135L106.775 51.5884C106.187 48.9263 103.785 47 101.071 47H87.7519C85.0325 47 82.63 48.9263 82.0476 51.5827L80.2318 59.6135C77.2297 60.8355 74.3754 62.4922 71.7133 64.5605L63.8934 62.0934C61.2614 61.2701 58.354 62.3932 57.0373 64.7426L50.3691 76.2746C49.0237 78.6656 49.4827 81.6447 51.4922 83.5366L57.5135 89.0702C57.3026 90.734 57.2022 92.3907 57.2022 94C57.2022 95.6093 57.3084 97.266 57.5135 98.9298L51.4735 104.481C49.4827 106.361 49.0237 109.34 50.382 111.743L57.0258 123.24C58.3597 125.62 61.2614 126.736 63.9063 125.912L71.7191 123.445C74.3754 125.514 77.2355 127.17 80.2375 128.392L82.0476 136.412C82.6357 139.074 85.0382 141.006 87.7577 141.006H101.077C103.796 141.006 106.2 139.074 106.781 136.423L108.597 128.392C111.599 127.17 114.455 125.514 117.115 123.445L124.935 125.912C127.562 126.73 130.469 125.614 131.792 123.257L138.46 111.725C139.794 109.334 139.34 106.361 137.35 104.481V104.481ZM94.4087 115.544C82.5296 115.544 72.8651 105.879 72.8651 94C72.8651 82.1209 82.5296 72.4564 94.4087 72.4564C106.288 72.4564 115.952 82.1209 115.952 94C115.952 105.879 106.288 115.544 94.4087 115.544Z" fill="#FC573B"/>
<path d="M101.265 104.769C100.261 104.769 99.2613 104.387 98.4982 103.623L91.6421 96.7668C90.9077 96.0324 90.4961 95.0399 90.4961 94V83.2311C90.4961 81.0695 92.2474 79.3125 94.4147 79.3125C96.5762 79.3125 98.3333 81.0638 98.3333 83.2311V92.3792L104.038 98.0835C105.565 99.6111 105.565 102.09 104.038 103.623C103.269 104.387 102.263 104.769 101.265 104.769V104.769Z" fill="#FD907E"/>
</g>
<defs>
<clipPath id="clip0">
<rect width="188" height="188" fill="white" transform="translate(0.408691)"/>
</clipPath>
</defs>
</svg>

<svg width="189" height="188" fill="none" xmlns="http://www.w3.org/2000/svg"><g clip-path="url(#clip0)"><path d="M153.159 188h-117.5c-19.47 0-35.25-15.78-35.25-35.25V35.25C.409 15.78 16.189 0 35.659 0h117.5c19.469 0 35.25 15.78 35.25 35.25v117.5c0 19.47-15.781 35.25-35.25 35.25z" fill="#FFE6E2"/><path d="M137.35 104.481l-.019-.018-6.021-5.533c.205-1.664.311-3.32.311-4.93 0-1.61-.106-3.266-.311-4.93l6.04-5.55a5.94 5.94 0 0 0 1.092-7.263l-6.645-11.497c-1.334-2.38-4.235-3.49-6.879-2.667l-7.814 2.468a35.881 35.881 0 0 0-8.518-4.948l-1.811-8.025c-.588-2.662-2.99-4.588-5.704-4.588h-13.32c-2.719 0-5.121 1.926-5.703 4.583l-1.816 8.03a36.054 36.054 0 0 0-8.519 4.948l-7.82-2.468c-2.632-.823-5.539.3-6.856 2.65L50.37 76.275a5.943 5.943 0 0 0 1.123 7.262l6.022 5.533a39.317 39.317 0 0 0-.312 4.93c0 1.61.106 3.266.312 4.93l-6.04 5.551a5.939 5.939 0 0 0-1.092 7.262l6.644 11.497c1.334 2.38 4.235 3.496 6.88 2.672l7.813-2.467a35.866 35.866 0 0 0 8.519 4.947l1.81 8.02c.588 2.662 2.99 4.594 5.71 4.594h13.319c2.719 0 5.123-1.932 5.704-4.583l1.816-8.031a35.936 35.936 0 0 0 8.518-4.947l7.82 2.467c2.627.818 5.534-.298 6.857-2.655l6.668-11.532a5.954 5.954 0 0 0-1.11-7.244zm-42.941 11.063c-11.88 0-21.544-9.665-21.544-21.544 0-11.88 9.665-21.544 21.544-21.544 11.879 0 21.543 9.665 21.543 21.544 0 11.879-9.664 21.544-21.543 21.544z" fill="#FC573B"/><path d="M101.265 104.769a3.895 3.895 0 0 1-2.767-1.146l-6.856-6.856A3.908 3.908 0 0 1 90.496 94V83.231a3.918 3.918 0 1 1 7.837 0v9.148l5.705 5.704a3.922 3.922 0 0 1 0 5.54 3.93 3.93 0 0 1-2.773 1.146z" fill="#FD907E"/></g><defs><clipPath id="clip0"><path fill="#fff" transform="translate(.409)" d="M0 0h188v188H0z"/></clipPath></defs></svg>
